X:747
T:The Northern Lasses
N:anon.
O:Ireland
B:Francis O'Neill: "The Dance Music of Ireland" (1907) no. 747
R:Reel
Z:Transcribed by Frank Nordberg - http://www.musicaviva.com
N:Music Aviva - The Internet center for free sheet music downloads
M:C|
L:1/8
K:G
(3(def)|gG (3GGG (EG)DG|(EG)DG (EG)AB|cBAG FGAB|cBAB cdef|gG (3GGG (EG)DG
|
(Aa)af gfed|cBAG FGAc|BGAFG2:|(Bd)|g2dg egdg|agbg agef|g2dg egdg|
agba g2(ga)|(3(bag) (3(agf) gfed|Bdef gedc|(3(Bcd) ef gfge|[1dgba gfe2dB (3(cBA) G2|]
